svgs/1F44D-1F3FB.svg

<svg xmlns="http://www.w3.org/2000/svg" xmlns:xlink="http://www.w3.org/1999/xlink" preserveAspectRatio="none" viewBox="0 0 72 72"><defs><path id="a" fill="#FADCBC" d="M83 40.95q6.45-15.05 6.2-21.1-.35-8-1.7-11.15Q84.6 2 76 2q-4.95 0-7.85 5.95-.1.15-5.4 15.1-2.25 6.35-5.55 11.9-4.55 7.7-10.3 12.2-2.7 2.15-13.55 6.2-12.25 4.55-16.6 7Q12.6 62.7 11.9 71.9q-.4 4.95-.05 12.85-.25 9.9.9 14.65 1.55 6.35 6.2 8.25 2 .8 5.25 3.8 1.85 1.7 5.65 5.35 7.25 6.35 23.15 8.25 9.15 1.1 23.5.65 2.7-.05 9.1-.1 5.8-.1 9.25-.65 9.75-1.55 9.95-8.05.1-3.15-1.85-4.8-2-1.65-6.4-2l-13.9-.65 1.1-1.8q5 .4 11.2.6 6.2.2 8.3 0 3.45-.25 5.9-2 3.15-2.2 3.2-6 .1-3.5-2.5-5.8-2.65-2.35-7.35-2.6l-9.35-.35.2-.35.4-1.1q2.8-.05 7.95-.5 4.25-.35 5.25-.3 4.4.25 7.1-2.5 2.65-2.75 2.1-6.85-.6-4.5-4.25-6.6-3.4-2-8.5-1.4-.65.1-4.15.15-3.5.1-4.7.25l1.9-2.1q2.4-.35 7.7-.75 4.7-.5 6.6-3.3 1.6-2.35 1.05-6.15-.65-4.45-4.35-5.9-1.8-.7-7.8-1.15-3.65-.3-8.95-.1-7.2.25-11.25 1.4-1.35-.4-.15-4.25.7-2.15 3.7-9.05z"/><path id="b" fill="#DBA689" d="M103.4 71.9l2.25-.15q-.95-.45-1-1.3l.15-1.1q-6 .5-15.3 1.75-16.5 2.15-17.35-4.8-.7-5.55 1.9-8.45 1.3-1.55 3.55-2.75 1.1-.6 1.95-.9-.35-.1-.6-.35l-.2-.8q-5.75.7-9.15 4.05-3.5 3.3-3.2 7.9.25 3.35 1.15 5.3 1.05 2.15 3.1 3.15l-1.4 1.5q-1.35 2.3-1.25 6 .05 3.75 2.45 6.55 1.2 1.4 2.5 2.15-2.55-.05-5.2 2-3.2 2.5-3.2 6.3 0 3.4 1.6 6.15 1.45 2.5 3.55 3.5-1.65.35-3.1 2.1-1.8 2.25-1.8 5.6 0 5 3.25 7.85 2.55 2.25 6.35 2.7 2.85.35 9.85 0 6.3-.3 9.55-.75.9-.15-5.35-.5-8.75-.5-13.55-1.15-2.05-.25-3.8-1.85-1.95-1.75-2.25-4.05-.2-1.05.1-2.45.6-2.7 3.05-4.25l1.8-.7q2.7-.7 7.45-.65h2.3q.7.05 12.95.6 1.9.15 3.55.55-.35-.35-.3-1.15.15-1.2 1.1-1.2l-8.3-.45q-15.3-.95-16.6-1.45-1.6-.4-3.15-1.6-3.2-2.45-3.2-6.5-.1-1.4.9-2.8 1.9-2.85 7.2-3l11.05-.45q12.1-.25 17.4.45-.3-.55-.35-1.25-.1-1.4 1.15-2.05l-23.2.6q-5.9.15-8.8-2.5-2.05-1.8-2.3-4.6l-.1-1.75q0-3.5 3.05-4.95 2-.9 7.95-1.7 13.95-1.85 19.85-2.4z"/><path id="c" fill="#DBA689" d="M65.8 92.15q7.85-11.15 5.3-24.6l-3.35.95.5 3q.35 3.8-.3 7.6-2.05 12.2-13.4 20l-1.05.9q-.85 1.1-.15 1.8l.8.4q1.2.05 3.3-1.55 4.45-2.9 8.35-8.5z"/></defs><use transform="scale(.5625)" xlink:href="#a"/><use transform="scale(.5625)" xlink:href="#b"/><use transform="scale(.5625)" xlink:href="#c"/></svg>

<svg xmlns="http://www.w3.org/2000/svg" version="1.1" xmlns:xlink="http://www.w3.org/1999/xlink" preserveAspectRatio="none" x="0px" y="0px" width="72px" height="72px" viewBox="0 0 72 72">
<defs>
<g id="Layer0_0_MEMBER_0_FILL">
<path fill="#FADCBC" stroke="none" d="
M 83 40.95
Q 89.45 25.9 89.2 19.85 88.85 11.85 87.5 8.7 84.6 2 76 2 71.05 2 68.15 7.95 68.05 8.1 62.75 23.05 60.5 29.4 57.2 34.95 52.65 42.65 46.9 47.15 44.2 49.3 33.35 53.35 21.1 57.9 16.75 60.35 12.6 62.7 11.9 71.9 11.5 76.85 11.85 84.75 11.6 94.65 12.75 99.4 14.3 105.75 18.95 107.65 20.95 108.45 24.2 111.45 26.05 113.15 29.85 116.8 37.1 123.15 53 125.05 62.15 126.15 76.5 125.7 79.2 125.65 85.6 125.6 91.4 125.5 94.85 124.95 104.6 123.4 104.8 116.9 104.9 113.75 102.95 112.1 100.95 110.45 96.55 110.1
L 82.65 109.45 83.75 107.65
Q 88.75 108.05 94.95 108.25 101.15 108.45 103.25 108.25 106.7 108 109.15 106.25 112.3 104.05 112.35 100.25 112.45 96.75 109.85 94.45 107.2 92.1 102.5 91.85
L 93.15 91.5 93.35 91.15 93.75 90.05
Q 96.55 90 101.7 89.55 105.95 89.2 106.95 89.25 111.35 89.5 114.05 86.75 116.7 84 116.15 79.9 115.55 75.4 111.9 73.3 108.5 71.3 103.4 71.9 102.75 72 99.25 72.05 95.75 72.15 94.55 72.3
L 96.45 70.2
Q 98.85 69.85 104.15 69.45 108.85 68.95 110.75 66.15 112.35 63.8 111.8 60 111.15 55.55 107.45 54.1 105.65 53.4 99.65 52.95 96 52.65 90.7 52.85 83.5 53.1 79.45 54.25 78.1 53.85 79.3 50 80 47.85 83 40.95 Z"/>
</g>

<g id="Layer0_0_MEMBER_1_FILL">
<path fill="#DBA689" stroke="none" d="
M 103.4 71.9
L 105.65 71.75
Q 104.7 71.3 104.65 70.45
L 104.8 69.35
Q 98.8 69.85 89.5 71.1 73 73.25 72.15 66.3 71.45 60.75 74.05 57.85 75.35 56.3 77.6 55.1 78.7 54.5 79.55 54.2 79.2 54.1 78.95 53.85
L 78.75 53.05
Q 73 53.75 69.6 57.1 66.1 60.4 66.4 65 66.65 68.35 67.55 70.3 68.6 72.45 70.65 73.45
L 69.25 74.95
Q 67.9 77.25 68 80.95 68.05 84.7 70.45 87.5 71.65 88.9 72.95 89.65 70.4 89.6 67.75 91.65 64.55 94.15 64.55 97.95 64.55 101.35 66.15 104.1 67.6 106.6 69.7 107.6 68.05 107.95 66.6 109.7 64.8 111.95 64.8 115.3 64.8 120.3 68.05 123.15 70.6 125.4 74.4 125.85 77.25 126.2 84.25 125.85 90.55 125.55 93.8 125.1 94.7 124.95 88.45 124.6 79.7 124.1 74.9 123.45 72.85 123.2 71.1 121.6 69.15 119.85 68.85 117.55 68.65 116.5 68.95 115.1 69.55 112.4 72 110.85
L 73.8 110.15
Q 76.5 109.45 81.25 109.5
L 83.55 109.5
Q 84.25 109.55 96.5 110.1 98.4 110.25 100.05 110.65 99.7 110.3 99.75 109.5 99.9 108.3 100.85 108.3
L 92.55 107.85
Q 77.25 106.9 75.95 106.4 74.35 106 72.8 104.8 69.6 102.35 69.6 98.3 69.5 96.9 70.5 95.5 72.4 92.65 77.7 92.5
L 88.75 92.05
Q 100.85 91.8 106.15 92.5 105.85 91.95 105.8 91.25 105.7 89.85 106.95 89.2
L 83.75 89.8
Q 77.85 89.95 74.95 87.3 72.9 85.5 72.65 82.7
L 72.55 80.95
Q 72.55 77.45 75.6 76 77.6 75.1 83.55 74.3 97.5 72.45 103.4 71.9 Z"/>
</g>

<g id="Layer0_0_MEMBER_2_FILL">
<path fill="#DBA689" stroke="none" d="
M 65.8 92.15
Q 73.65 81 71.1 67.55
L 67.75 68.5 68.25 71.5
Q 68.6 75.3 67.95 79.1 65.9 91.3 54.55 99.1
L 53.5 100
Q 52.65 101.1 53.35 101.8
L 54.15 102.2
Q 55.35 102.25 57.45 100.65 61.9 97.75 65.8 92.15 Z"/>
</g>
</defs>

<g id="Layer_1">
<g transform="matrix( 0.5625, 0, 0, 0.5625, 0,0) ">
<use xlink:href="#Layer0_0_MEMBER_0_FILL"/>
</g>

<g transform="matrix( 0.5625, 0, 0, 0.5625, 0,0) ">
<use xlink:href="#Layer0_0_MEMBER_1_FILL"/>
</g>

<g transform="matrix( 0.5625, 0, 0, 0.5625, 0,0) ">
<use xlink:href="#Layer0_0_MEMBER_2_FILL"/>
</g>
</g>
</svg>
